src/pos-icons/axis-x-arrow.svg

<svg height="24" viewBox="0 0 24 24" width="24" xmlns="http://www.w3.org/2000/svg"><path d="m1.5 20.5 1.5-5.47 1.46 2.57 6.54-3.78v-10.82h2v10.82l9.39 5.43-1 1.75-9.39-5.44-6.54 3.77 1.54 2.63z"/></svg>

<?xml version="1.0" encoding="UTF-8"?><!DOCTYPE svg PUBLIC "-//W3C//DTD SVG 1.1//EN" "http://www.w3.org/Graphics/SVG/1.1/DTD/svg11.dtd"><svg xmlns="http://www.w3.org/2000/svg" xmlns:xlink="http://www.w3.org/1999/xlink" version="1.1" id="mdi-axis-x-arrow" width="24" height="24" viewBox="0 0 24 24"><path d="M1.5,20.5L3,15.03L4.46,17.6L11,13.82V3H13V13.82L22.39,19.25L21.39,21L12,15.56L5.46,19.33L7,21.96L1.5,20.5Z" /></svg>
